communes/4846.svg

<?xml version="1.0" encoding="UTF-8" standalone="no"?>
<!-- Created with Inkscape (http://www.inkscape.org/) -->

<svg
   xmlns:dc="http://purl.org/dc/elements/1.1/"
   xmlns:cc="http://creativecommons.org/ns#"
   xmlns:rdf="http://www.w3.org/1999/02/22-rdf-syntax-ns#"
   xmlns:svg="http://www.w3.org/2000/svg"
   xmlns="http://www.w3.org/2000/svg"
   xmlns:sodipodi="http://sodipodi.sourceforge.net/DTD/sodipodi-0.dtd"
   xmlns:inkscape="http://www.inkscape.org/namespaces/inkscape"
   version="1.0"
   width="208.86046"
   height="244.65999"
   id="svg2780"
   inkscape:version="0.92.3 (2405546, 2018-03-11)"
   sodipodi:docname="Raperswilen-blazon.svg">
  <metadata
     id="metadata27">
    <rdf:RDF>
      <cc:Work
         rdf:about="">
        <dc:format>image/svg+xml</dc:format>
        <dc:type
           rdf:resource="http://purl.org/dc/dcmitype/StillImage" />
        <dc:title></dc:title>
      </cc:Work>
    </rdf:RDF>
  </metadata>
  <sodipodi:namedview
     pagecolor="#ffffff"
     bordercolor="#666666"
     borderopacity="1"
     objecttolerance="10"
     gridtolerance="10"
     guidetolerance="10"
     inkscape:pageopacity="0"
     inkscape:pageshadow="2"
     inkscape:window-width="1804"
     inkscape:window-height="1251"
     id="namedview25"
     showgrid="false"
     inkscape:zoom="3.3234019"
     inkscape:cx="78.958635"
     inkscape:cy="157.97858"
     inkscape:window-x="33"
     inkscape:window-y="16"
     inkscape:window-maximized="0"
     inkscape:current-layer="svg2780"
     inkscape:measure-start="104.255,149.787"
     inkscape:measure-end="104.255,126.383"
     inkscape:object-paths="true" />
  <defs
     id="defs2782" />
  <path
     inkscape:connector-curvature="0"
     style="fill:#cb2918;fill-opacity:1;fill-rule:evenodd;stroke:none;stroke-width:1.99999988;stroke-linecap:butt;stroke-miterlimit:4;stroke-dashoffset:0;stroke-opacity:1"
     id="path3282"
     d="m 1,1 3.76109,158.00304 c 2.68649,112.85918 196.65176,112.85918 199.33826,0 L 207.86045,1 Z" />
  <path
     inkscape:connector-curvature="0"
     style="fill:none;fill-opacity:1;fill-rule:evenodd;stroke:#000000;stroke-width:1.99999988;stroke-linecap:butt;stroke-miterlimit:4;stroke-dashoffset:0;stroke-opacity:1"
     id="path4212"
     d="m 1,1 3.761095,158.00304 c 2.686489,112.85918 196.651755,112.85918 199.338255,0 L 207.86045,1 Z" />
  <path
     id="path5516-0"
     style="fill:#ffffff;fill-rule:evenodd;stroke:#000000;stroke-width:1px;stroke-linecap:butt;stroke-linejoin:miter;stroke-opacity:1;fill-opacity:1"
     d="m 104.43022,222.09275 h 56.88857 L 131.22914,138.74442 H 169.443 L 104.43022,6.0490639 m 0,216.0436861 H 47.541647 l 30.08965,-83.34833 H 39.417442 L 104.43022,6.0490639" />
  <path
     id="path5533-6"
     style="fill:#cb2918;fill-opacity:1;fill-rule:evenodd;stroke:#000000;stroke-width:1px;stroke-linecap:butt;stroke-linejoin:miter;stroke-opacity:1"
     d="m 104.43022,211.86227 h 41.68261 l -30.99234,-85.7555 h 35.63042 L 104.43022,31.39738 m 0,180.46489 H 62.747613 l 30.992339,-85.7555 H 58.10953 l 46.32069,-94.70939"
     inkscape:connector-curvature="0"
     sodipodi:nodetypes="cccccccccc" />
  <path
     style="fill:none;fill-rule:evenodd;stroke:#000000;stroke-width:1px;stroke-linecap:butt;stroke-linejoin:miter;stroke-opacity:1"
     d="m 100.25011,39.944214 4.18011,-8.546834 3.89192,7.957605"
     id="path5552"
     inkscape:connector-curvature="0" />
  <path
     style="fill:none;fill-rule:evenodd;stroke:#000000;stroke-width:1px;stroke-linecap:butt;stroke-linejoin:miter;stroke-opacity:1"
     d="m 101.64596,11.731929 2.78426,-5.6828651 2.75731,5.6278581"
     id="path5554"
     inkscape:connector-curvature="0" />
</svg>

<?xml version="1.0" encoding="UTF-8"?>
<svg version="1.0" viewBox="0 0 208.86 244.66" xmlns="http://www.w3.org/2000/svg" xmlns:cc="http://creativecommons.org/ns#" xmlns:dc="http://purl.org/dc/elements/1.1/" xmlns:rdf="http://www.w3.org/1999/02/22-rdf-syntax-ns#">
<metadata>
<rdf:RDF>
<cc:Work rdf:about="">
<dc:format>image/svg+xml</dc:format>
<dc:type rdf:resource="http://purl.org/dc/dcmitype/StillImage"/>
<dc:title/>
</cc:Work>
</rdf:RDF>
</metadata>
<path d="m1 1 3.7611 158c2.6865 112.86 196.65 112.86 199.34 0l3.7611-158z" fill="#cb2918" fill-rule="evenodd"/>
<path d="m1 1 3.7611 158c2.6865 112.86 196.65 112.86 199.34 0l3.7611-158z" fill="none" stroke="#000" stroke-width="2"/>
<path d="m104.43 222.09h56.889l-30.09-83.348h38.214l-65.013-132.7m0 216.04h-56.889l30.09-83.348h-38.214l65.013-132.7" fill="#fff" fill-rule="evenodd" stroke="#000" stroke-width="1px"/>
<path d="m104.43 211.86h41.683l-30.992-85.756h35.63l-46.321-94.709m0 180.46h-41.683l30.992-85.756h-35.63l46.321-94.709" fill="#cb2918" fill-rule="evenodd" stroke="#000" stroke-width="1px"/>
<path d="m100.25 39.944 4.1801-8.5468 3.8919 7.9576" fill="none" stroke="#000" stroke-width="1px"/>
<path d="m101.65 11.732 2.7843-5.6829 2.7573 5.6279" fill="none" stroke="#000" stroke-width="1px"/>
</svg>
